content/de/services/services/slsa.svg

<svg width="140" height="140" viewBox="0 0 140 140" fill="none" xmlns="http://www.w3.org/2000/svg">
    <g clip-path="url(#clip0_287_15488)">
        <path fill-rule="evenodd" clip-rule="evenodd"
              d="M130.526 3.09944e-05L130.911 -0.4354L123.418 -7.05762L120.107 -3.31108C119.118 -2.19265 118.116 -1.08888 117.099 3.09944e-05H6.00815e-05V7.79192L-6.87984 12.0322L-4.25644 16.2887C-2.88297 18.5172 -1.46359 20.7083 6.00815e-05 22.8611V116.282C-0.0338635 116.283 -0.0677886 116.283 -0.101715 116.284L-5.10068 116.386L-4.89713 126.384L6.00815e-05 126.284V140H140V51.316C141.441 49.2426 142.84 47.133 144.196 44.9878C146.475 41.5586 148.167 38.6265 149.299 36.5299C149.869 35.4759 150.297 34.6313 150.589 34.0387C150.735 33.7423 150.847 33.5088 150.925 33.3434C150.964 33.2607 150.994 33.195 151.016 33.147L151.043 33.0883L151.052 33.0691L151.055 33.062L151.056 33.0591L151.057 33.0578C151.057 33.0572 151.057 33.0567 146.5 31L151.057 33.0567L153.114 28.4992L143.999 24.386L141.945 28.9378L141.945 28.9388L141.944 28.9397L141.944 28.9414L141.943 28.9423L141.943 28.9434L141.935 28.9608C141.924 28.9842 141.905 29.025 141.878 29.0824C141.824 29.1974 141.737 29.3791 141.617 29.6223C141.378 30.1089 141.007 30.8411 140.501 31.7773C140.346 32.0632 140.179 32.368 140 32.6904V3.09944e-05H130.526ZM130.526 3.09944e-05H117.099C95.0533 23.6184 66.5077 40.2462 35.1077 47.7789C23.2329 37.2382 12.8028 24.9083 4.25656 11.0419L1.63316 6.78539L6.00815e-05 7.79192V22.8611C8.7077 35.6685 18.9825 47.1199 30.4824 57.0171C47.0122 71.2433 66.0734 82.2587 86.6523 89.4778C69.2285 100.865 49.6898 108.926 29.0401 113.083C19.5626 114.99 9.85046 116.075 6.00815e-05 116.282V126.284L0.101835 126.282C10.5859 126.069 20.9245 124.917 31.0133 122.886C56.4161 117.773 80.2305 107.09 100.799 91.7964C115.809 80.6352 129.091 67.0173 140 51.316V32.6904C139.004 34.4812 137.621 36.8174 135.837 39.4984L135.804 39.5475L135.773 39.5973C125.261 56.2366 112.014 70.6127 96.8108 82.277C77.9296 76.568 60.2565 67.5191 44.6314 55.615C76.6133 46.4858 105.458 28.3654 127.6 3.31114L130.526 3.09944e-05Z"
              fill="#FF6740"/>
    </g>
    <defs>
        <clipPath id="clip0_287_15488">
            <path d="M0 28C0 12.536 12.536 0 28 0H112C127.464 0 140 12.536 140 28V112C140 127.464 127.464 140 112 140H28C12.536 140 0 127.464 0 112V28Z"
                  fill="white"/>
        </clipPath>
    </defs>
</svg>

<svg xmlns="http://www.w3.org/2000/svg" width="140" height="140" fill="none"><g clip-path="url(#a)"><path fill="#FF6740" fill-rule="evenodd" d="m130.5 0 .4-.4-7.5-6.7-3.3 3.8-3 3.3H0v7.8L-6.9 12l2.6 4.3L0 22.9v93.4h-5.1l.2 10H0V140h140V51.3a174 174 0 0 0 11-18v-.2l-4.5-2.1 4.6 2 2-4.5-9.1-4.1-2 4.5-.1.2-1.9 3.6V0zm0 0h-13.4a165 165 0 0 1-82 47.8A165 165 0 0 1 4.3 11L1.6 6.8 0 7.8v15a175 175 0 0 0 86.7 66.7A165 165 0 0 1 0 116.3v10h.1a175 175 0 0 0 139.9-75V32.7l-4.2 6.8v.1a165 165 0 0 1-39 42.7 165 165 0 0 1-52.2-26.7 174 174 0 0 0 83-52.3z" clip-rule="evenodd"/></g><defs><clipPath id="a"><path fill="#fff" d="M0 28A28 28 0 0 1 28 0h84a28 28 0 0 1 28 28v84a28 28 0 0 1-28 28H28a28 28 0 0 1-28-28z"/></clipPath></defs></svg>
